storage/app/icons/tabler/filled/badge-ar.svg

<!--
unicode: "fe97"
version: "3.0"
-->
<svg
  xmlns="http://www.w3.org/2000/svg"
  width="24"
  height="24"
  viewBox="0 0 24 24"
  fill="currentColor"
>
  <path d="M19 4a3 3 0 0 1 3 3v10a3 3 0 0 1 -3 3h-14a3 3 0 0 1 -3 -3v-10a3 3 0 0 1 3 -3zm-10.5 4a2.5 2.5 0 0 0 -2.5 2.5v4.5a1 1 0 0 0 2 0v-1h1v1a1 1 0 0 0 .883 .993l.117 .007a1 1 0 0 0 1 -1v-4.5a2.5 2.5 0 0 0 -2.5 -2.5m7 0h-1.5a1 1 0 0 0 -1 1v6a1 1 0 0 0 1 1l.117 -.007a1 1 0 0 0 .883 -.993v-1.196l1.168 1.75a1 1 0 0 0 1.387 .278l.093 -.07a1 1 0 0 0 .184 -1.317l-1.159 -1.738l.044 -.023a2.5 2.5 0 0 0 -1.217 -4.684m-7 2a.5 .5 0 0 1 .5 .5v1.5h-1v-1.5a.5 .5 0 0 1 .41 -.492zm7 0a.5 .5 0 1 1 0 1h-.5v-1z" />
</svg>

<svg xmlns="http://www.w3.org/2000/svg" width="24" height="24" fill="currentColor" viewBox="0 0 24 24"><path d="M19 4a3 3 0 0 1 3 3v10a3 3 0 0 1-3 3H5a3 3 0 0 1-3-3V7a3 3 0 0 1 3-3zM8.5 8A2.5 2.5 0 0 0 6 10.5V15a1 1 0 0 0 2 0v-1h1v1a1 1 0 0 0 .883.993L10 16a1 1 0 0 0 1-1v-4.5A2.5 2.5 0 0 0 8.5 8m7 0H14a1 1 0 0 0-1 1v6a1 1 0 0 0 1 1l.117-.007A1 1 0 0 0 15 15v-1.196l1.168 1.75a1 1 0 0 0 1.387.278l.093-.07a1 1 0 0 0 .184-1.317l-1.159-1.738.044-.023A2.5 2.5 0 0 0 15.5 8m-7 2a.5.5 0 0 1 .5.5V12H8v-1.5a.5.5 0 0 1 .41-.492zm7 0a.5.5 0 1 1 0 1H15v-1z"/></svg>
